X:1
T:Don't Sell Him Any More Rum
M:6/8
L:1/8
K:Bb
 B| d2 d dfB| d3 z2 d| ccc cec| B3 z2 B| d3 dcd| f2 B d2 B| c2 c cec|\
 B3 z2 B| eee efg| f3 z2 B| ccc cfe| d3 z2 d| ede efg| f3 z2 B| c2 c ceA|\
 B3 z2 B| d2 d dfB| d3 z2 d| ccc cec| B3 z2 B| d3 dcd| f2 B d2 B| c2 c ceA|\
 B3 z2||
